X:514
T:Hungarian Schottische.2voices RH.514
T:Girl with a Blue Dress on,The,aka. RH.514
R:schottishe
S:Rev.R.Harrison’s MS,c1815,Cumbria
C:In hand 3.
O:England
A:Temple Sowerby,Cumbria
Z:vmp.Simon Wilson. Review PJH, 2008.
V:1 name=”primo”
V:2 name=”secundo”
M:2/4
L:1/16
Q:1/4=100
K:C
[V:1]|:g2((3gag) f2d2|e2c2 cBce|d2B2 BABd|e2c2 cBce|
[V:2]|:G,4G,4|C2C2C4|G,2G,2G,4|C,2C,2C,4|
%
[V:1] g2((3gag) f2d2|e2c2 cBce|d2B2 BABd|c2c2 “qu”c4:|
[V:2] G,4G,4|C2C2C4|G,2G,2 G,,2G,,2|C,2C,2 C,4:|
%
[V:1]|:c2((3ceg) c’2b2|c’aa^g a4|B2((3Bdf) b2a2|agg^f g4|
[V:2]|:C,2C,2 C,4|F,2F,2F,4|G,2G,2G,4|C2C2C4|
%
[V:1] c2((3ceg) c’2b2|c’aa^g a4|B2((3Bdf) a2B2|c2c2 “qu”c4:|
[V:2] C,2C,2 C,4|F,2F,2F,4|G,2G,2 G,,2G,,2|C,2C,2 C,4:|

